X: 0
T: St. Theodulph, 7 6 7 6 D (Iambic)
Z: Melchior Teschner, 1615
Z: Public  domain
L: 1/4
M: 4/4
Q: 1/4=110
V: P1_1 name="Unnamed-000"
V: P1_2
%%MIDI program 1 0
V: P2_1 name="St. Theodulph"
V: P2_2
%%MIDI program 2 91
K: Bb
% Extracting voice 1 from part P1
[V: P1_1]  | | B2 [DB] [Fd] | c [DB] [CB] [CA] | | | B2 [DB] [Fd] | c [DB] [CB] [CA] ||] | | | [DB] [FA] G [=EG] | | | | [B,E] [B,D] C [A,C] ||]
% Extracting voice 2 from part P1
[V: P1_2]  | | E D/C/ x2  | F/E/ x3  | | | E D/C/ x2  | F/E/ x3  ||] | | | x2  F x1  | | | | x2  B, x1  ||]
% Extracting voice 1 from part P2
[V: P2_1]  | | | | | | | ||] | B, [=E,C] [C,C] | | [G,,B,] [A,,C] [B,,D] C/B,/ | | | F,2 [B,,F,] [D,F,] | [E,G,] [B,,F,] F,3/ F,,/-[F,,/E,/] ||]
% Extracting voice 2 from part P2
[V: P2_2]  | | | | | | | ||] | B,/A,/ G,/F,/ x2  | | x3  C, | | | A,, F,, x2  | x2  F,, x0  ||]

